X: 21112
T: Kanturk, The
R: polka
M: 2/4
K: Dmajor
|:d>e fe|dc BA|B/c/d/B/ AF|E2 E2|
d>e fe|dc BA|B/c/d/B/ AF|D2 D2:|
|:A/B/c/d/ ef|gb ag|fd/f/ af|e2 e2|
A/B/c/d/ ef|gb ag|fd/f/ ec|d2 d2:|

